src/images/Photoshop-Logo_weiss.svg

<?xml version="1.0" encoding="UTF-8" standalone="no"?>
<!-- Generator: Adobe Illustrator 24.1.0, SVG Export Plug-In . SVG Version: 6.00 Build 0)  -->

<svg
   version="1.1"
   id="Layer_1"
   x="0px"
   y="0px"
   viewBox="0 0 240 234"
   style="enable-background:new 0 0 240 234;"
   xml:space="preserve"
   sodipodi:docname="Adobe_Photoshop_CC_icon_weiss.svg"
   inkscape:version="1.2.1 (ef4d3fba62, 2022-07-19, custom)"
   xmlns:inkscape="http://www.inkscape.org/namespaces/inkscape"
   xmlns:sodipodi="http://sodipodi.sourceforge.net/DTD/sodipodi-0.dtd"
   xmlns="http://www.w3.org/2000/svg"
   xmlns:svg="http://www.w3.org/2000/svg"><defs
   id="defs165">
	
	

		
	
			
			
		
		
	
			
		
				
			</defs><sodipodi:namedview
   id="namedview163"
   pagecolor="#505050"
   bordercolor="#eeeeee"
   borderopacity="1"
   inkscape:showpageshadow="0"
   inkscape:pageopacity="0"
   inkscape:pagecheckerboard="0"
   inkscape:deskcolor="#505050"
   showgrid="false"
   inkscape:zoom="2.4597646"
   inkscape:cx="148.998"
   inkscape:cy="111.39277"
   inkscape:window-width="1920"
   inkscape:window-height="1016"
   inkscape:window-x="0"
   inkscape:window-y="0"
   inkscape:window-maximized="1"
   inkscape:current-layer="Layer_1" />
<style
   type="text/css"
   id="style148">
	.st0{fill:#001E36;}
	.st1{fill:#31A8FF;}
</style>
<path
   id="path150"
   style="fill:#ffffff"
   class="st0"
   d="M 42.5 0 C 19.000047 0 0 19.000047 0 42.5 L 0 191.5 C 0 214.99996 19.000047 234 42.5 234 L 197.5 234 C 220.99996 234 240 214.99996 240 191.5 L 240 42.5 C 240 19.000047 220.99996 0 197.5 0 L 42.5 0 z M 86 59.5 C 94.199984 59.5 100.99961 60.499613 106.59961 62.599609 C 111.59959 64.299607 116.2 67.100789 120 70.800781 C 123.2 74.000775 125.70078 77.899227 127.30078 82.199219 C 128.80078 86.399211 129.59961 90.699227 129.59961 95.199219 C 129.59961 103.7992 127.59961 110.90002 123.59961 116.5 C 119.59961 122.09998 113.99998 126.29922 107.5 128.69922 C 100.70002 131.19922 93.199984 132.09961 85 132.09961 C 82.600004 132.09961 80.999998 132.1 80 132 C 79.000002 131.9 77.599215 131.90039 75.699219 131.90039 L 75.699219 164 C 75.799219 164.7 75.299609 165.30039 74.599609 165.40039 L 74.199219 165.40039 L 55.199219 165.40039 C 54.399221 165.40039 54 164.99961 54 164.09961 L 54 61.199219 C 54 60.499219 54.300002 60.099609 55 60.099609 C 56.699996 60.099609 58.299615 60.1 60.599609 60 C 62.999605 59.9 65.499223 59.900781 68.199219 59.800781 C 70.899213 59.700781 73.800397 59.699609 76.900391 59.599609 C 80.000385 59.499609 83.000006 59.5 86 59.5 z M 88.232422 79.195312 C 87.723438 79.185548 87.211717 79.186719 86.699219 79.199219 C 84.099223 79.199219 81.800387 79.200781 79.900391 79.300781 C 77.900395 79.200781 76.500781 79.300391 75.800781 79.400391 L 75.800781 113 C 77.200779 113.1 78.499221 113.19922 79.699219 113.19922 L 85 113.19922 C 88.899992 113.19922 92.800008 112.60039 96.5 111.40039 C 99.699994 110.50039 102.49922 108.59961 104.69922 106.09961 C 106.79922 103.59961 107.80078 100.20078 107.80078 95.800781 C 107.90078 92.700787 107.1 89.600385 105.5 86.900391 C 103.8 84.300395 101.4 82.299217 98.5 81.199219 C 95.262506 79.886721 91.795305 79.263672 88.232422 79.195312 z M 172.09961 84.300781 C 176.19961 84.300781 180.4 84.599219 184.5 85.199219 C 187.5 85.599218 190.39961 86.400001 193.09961 87.5 C 193.49961 87.6 193.89961 88.000391 194.09961 88.400391 C 194.19961 88.80039 194.30078 89.19961 194.30078 89.599609 L 194.30078 105.90039 C 194.30078 106.30039 194.10078 106.70039 193.80078 106.90039 C 192.90078 107.10039 192.4 107.10039 192 106.90039 C 189 105.30039 185.80039 104.2 182.40039 103.5 C 178.70039 102.7 174.99921 102.19922 171.19922 102.19922 C 169.19922 102.09922 167.09922 102.40039 165.19922 102.90039 C 163.89922 103.20039 162.79961 103.90039 162.09961 104.90039 C 161.59961 105.70039 161.30078 106.69961 161.30078 107.59961 C 161.30078 108.49961 161.70078 109.39922 162.30078 110.19922 C 163.20078 111.29922 164.39922 112.20039 165.69922 112.90039 C 167.99922 114.10039 170.40078 115.19922 172.80078 116.19922 C 178.20078 117.99922 183.39922 120.5 188.19922 123.5 C 191.49922 125.6 194.19961 128.40078 196.09961 131.80078 C 197.69961 135.00078 198.50039 138.49961 198.40039 142.09961 C 198.50039 146.7996 197.1 151.50039 194.5 155.40039 C 191.7 159.40039 187.80078 162.50078 183.30078 164.30078 C 178.40079 166.40078 172.39921 167.5 165.19922 167.5 C 160.59922 167.5 156.0996 167.09922 151.59961 166.19922 C 148.09961 165.59922 144.60039 164.5 141.40039 163 C 140.70039 162.6 140.20078 161.89961 140.30078 161.09961 L 140.30078 143.69922 C 140.30078 143.39922 140.39922 143.00078 140.69922 142.80078 C 140.99922 142.60078 141.29961 142.70039 141.59961 142.90039 C 145.49961 145.20039 149.6 146.80078 154 147.80078 C 157.8 148.80078 161.80079 149.30078 165.80078 149.30078 C 169.60078 149.30078 172.29961 148.80039 174.09961 147.90039 C 175.69961 147.20039 176.80078 145.49922 176.80078 143.69922 C 176.80078 142.29922 176.00039 140.99922 174.40039 139.69922 C 172.80039 138.39922 169.4996 136.9 164.59961 135 C 159.49961 133.2 154.80039 130.80078 150.40039 127.80078 C 147.30039 125.60078 144.70078 122.70078 142.80078 119.30078 C 141.20078 116.10078 140.4 112.59961 140.5 109.09961 C 140.5 104.79961 141.70039 100.7 143.90039 97 C 146.40039 93.000004 150.10039 89.800779 154.40039 87.800781 C 159.10039 85.400784 164.99962 84.300781 172.09961 84.300781 z " />
</svg>

<svg xmlns="http://www.w3.org/2000/svg" xml:space="preserve" id="Layer_1" x="0" y="0" style="enable-background:new 0 0 240 234" version="1.1" viewBox="0 0 240 234"><style id="style148" type="text/css">.st1{fill:#31a8ff}</style><path id="path150" d="M42.5 0C19 0 0 19 0 42.5v149C0 215 19 234 42.5 234h155c23.5 0 42.5-19 42.5-42.5v-149C240 19 221 0 197.5 0h-155zM86 59.5c8.2 0 15 1 20.6 3.1 5 1.7 9.6 4.5 13.4 8.2 3.2 3.2 5.7 7.1 7.3 11.4 1.5 4.2 2.3 8.5 2.3 13 0 8.6-2 15.7-6 21.3-4 5.6-9.6 9.8-16.1 12.2-6.8 2.5-14.3 3.4-22.5 3.4-2.4 0-4 0-5-.1s-2.4-.1-4.3-.1V164c.1.7-.4 1.3-1.1 1.4H55.2c-.8 0-1.2-.4-1.2-1.3V61.2c0-.7.3-1.1 1-1.1 1.7 0 3.3 0 5.6-.1 2.4-.1 4.9-.1 7.6-.2 2.7-.1 5.6-.1 8.7-.2 3.1-.1 6.1-.1 9.1-.1zm2.232 19.695c-.509-.01-1.02-.008-1.533.004-2.6 0-4.899.002-6.799.102-2-.1-3.4 0-4.1.1V113c1.4.1 2.7.2 3.9.2H85c3.9 0 7.8-.6 11.5-1.8 3.2-.9 6-2.8 8.2-5.3 2.1-2.5 3.1-5.9 3.1-10.3.1-3.1-.7-6.2-2.3-8.9-1.7-2.6-4.1-4.6-7-5.7-3.237-1.313-6.705-1.936-10.268-2.005zm83.868 5.106c4.1 0 8.3.298 12.4.898 3 .4 5.9 1.201 8.6 2.301.4.1.8.5 1 .9.1.4.2.8.2 1.2v16.3c0 .4-.2.8-.5 1-.9.2-1.4.2-1.8 0-3-1.6-6.2-2.7-9.6-3.4-3.7-.8-7.4-1.3-11.2-1.3-2-.1-4.1.2-6 .7-1.3.3-2.4 1-3.1 2-.5.8-.8 1.8-.8 2.7 0 .9.4 1.8 1 2.6.9 1.1 2.1 2 3.4 2.7 2.3 1.2 4.7 2.3 7.1 3.3 5.4 1.8 10.6 4.3 15.4 7.3 3.3 2.1 6 4.9 7.9 8.3 1.6 3.2 2.4 6.7 2.3 10.3.1 4.7-1.3 9.4-3.9 13.3-2.8 4-6.7 7.1-11.2 8.9-4.9 2.1-10.9 3.2-18.1 3.2-4.6 0-9.1-.4-13.6-1.3-3.5-.6-7-1.7-10.2-3.2-.7-.4-1.2-1.1-1.1-1.9v-17.4c0-.3.1-.7.4-.9.3-.2.6-.1.9.1 3.9 2.3 8 3.9 12.4 4.9 3.8 1 7.8 1.5 11.8 1.5 3.8 0 6.5-.5 8.3-1.4 1.6-.7 2.7-2.4 2.7-4.2 0-1.4-.8-2.7-2.4-4-1.6-1.3-4.9-2.8-9.8-4.7-5.1-1.8-9.8-4.2-14.2-7.2-3.1-2.2-5.7-5.1-7.6-8.5-1.6-3.2-2.4-6.7-2.3-10.2 0-4.3 1.2-8.4 3.4-12.1 2.5-4 6.2-7.2 10.5-9.2 4.7-2.4 10.6-3.5 17.7-3.5z" style="fill:#fff"/></svg>
